X:1
T:Dic nobis, Maria
T:André Vierendeels
T:Notes : Text from Sequence Victimae Paschali laudes. 
T:(11/11/18)
T:Dic nobis, Maria
T:©
T:©
T:©
T:©
C:André Vierendeels
Z:©
%%score [ 1 2 3 4 ]
L:1/8
Q:1/4=99
M:2/2
K:C
V:1 treble nm="Soprano" snm="S"
V:2 treble nm="Alto" snm="A"
V:3 treble-8 nm="Tenor" snm="T"
V:4 bass nm="Bass" snm="B"
V:1
 A4 A4 | d2 B2 (A4 | F4) z2 E2 | A2 c2 d2 B2 | A4 A4 || A4 B2 A2 | (A4 d4) | A4 z2 A2 | %8
w: Dic no-|bis Ma- ri-|a quid|vi- dis- ti in|vi- a?|"Se- pul- chrum|Chris- *|ti et|
 B2 c2 d2 B2 | e2 c2 A2 G2 | A4 F4 || A8 | A8 | d4 B4 | A8 | F8 | z4 E4 | A4 c4 | d4 B4 | A8 | %20
w: glo- * ri- am|vi- di re- sur-|gen- tis;|an-|ge-|li- cos|tes-|tes,|su-|da- ri-|um et|ves-|
 A8 || c4 A4 | D4 F4 | A4 A4 | d8 | d8 | z4 A4 | B8 | A4 G4 | c4 c4 | A4 G4 | A8 | D8 || A4 c4 | %34
w: tes.|Sur- re-|xit Chris-|tus spes|me-|a:|prae-|ce-|det su-|os in|Ga- li-|lae-|am."|Sci- mus|
 d4 A4 | A4 G4 | A4 A4- | A4 c4 | G4 c4 | A4 A4 | A8 | E4 A4 | G4 E4 | E4 E4- | E4 A4 | E4 (F3 G) | %46
w: Chris- tum|sur- rex-|is- *|* a|mor- tu-|is ve-|re.|Tu no-|bis, vic-|tor Rex,|_ mi-|se- re- *|
 A8 ||[M:3/4] A6 |[M:2/2] (A4 F4) | F2 A2 A4 | ^F8 |] %51
w: re.|A-|men. _|Al- le- lu-|ia.|
V:2
 z2 A,2 C2 D2 | F2 G2 (E4 | D4) z2 C2 | F2 E2 D2 E2 | C4 D4 || F2 A2 G2 A2 | (F3 G) (F3 E) | %7
w: Dic no- bis|Ma- ri- a,|_ quid|vi- dis- ti in|vi- a?|"Se- pul- chrum Chris-|ti vi- ven- *|
 D4 z2 D2 | G4 F2 G2 | A2 G2 F2 G2 | (F3 E) D4 || z4 A,4 | C4 D4 | F4 G4 | (E8 | D8) | z4 C4 | %17
w: tis, et|glo- ri- am|vi- di re- sur-|gen- * tis;|an-|ge- li-|cos tes-|tes,|_|su-|
 F4 E4 | D4 E4 | C8 | D8 || F4 A4 | G4 A4 | F6 G2- | G2 (F4 E2) | D8 | z4 D4 | G8 | F4 G4 | A4 G4 | %30
w: da- ri-|um et|ves-|tes.|Sur- re-|xit Chris-|tus spes|_ me- *|a:|prae-|ce-|det su-|os in|
 F4 G4 | (F6 E2) | D8 || E4 E4 | F4 F4 | E4 G4 | E4 E4- | E4 A4 | B4 G4 | F4 E4 | D8 | C4 F4 | %42
w: Ga- li-|lae- *||Sci- mus|Chris- tum|sur- rex-|is- se|_ a|mor- tu-|is ve-|re.|Tu no-|
 E4 G4 | A4 A4- | A4 F4 | G4 (F3 E) | D8 ||[M:3/4] (D2 E2 D2) |[M:2/2] (C4 D4) | C2 F2 (E3 D) | %50
w: bis, vic-|tor Rex,|_ mi-|se- re- *|re.|A- * *|men. _|Al- le- lu- *|
 D8 |] %51
w: |
V:3
 d4 c2 A2- | A2 B2 c4 | A4 z2 A2 | d2 G2 A2 G2 | E4 F4 || d4 d2 d2 | A4 A2 A2 | A4 A4 | %8
w: Dic no- bis|_ Ma- ri-|a, quid|vi- dis- ti in|vi- a?|"Se- pul- chrum|Chris- ti vi-|ven- tis,|
 E2 E2 A2 B2 | c2 e2 d2 B2 | d4 d4 || d8 | c4 A4- | A4 B4 | c8 | A8 | z4 A4 | c4 G4 | A4 G4 | E8 | %20
w: et glo- ri- am|vi- di re- sur-|gen- tis;|an-|ge- li-|* cos|tes-|tes,|su-|da- ri-|um et|ves-|
 F8 || A8 | d4 F4 | A8 | d4 A4 | A8 | A8 | z4 E4 | A4 B4 | e8 | d4 B4 | d8 | d8 || c4 E4 | A4 d4 | %35
w: tes.|Sur-|re- xit|Chris-|tus spes|me-|a:|prae-|ce- det|in|Ga- li-|lae-|am."|Sci- mus|Chris- tum|
 c4 B4 | c4 c4- | c4 e4 | e4 c4 | c4 c4 | F8 | G4 c4 | c4 B4 | c4 c4- | c4 c4 | B4 A4 | F8 || %47
w: sur- rex-|is- se|_ a|mor- tu-|is ve-|re.|Tu no-|bis, vic-|tor Rex,|_ mi-|se- re-|re.|
[M:3/4] F6 |[M:2/2] (E4 A4) | A2 A2 c4 | A8 |] %51
w: A-|men. _|Al- le- lu-|ia.|
V:4
 z2 D,2 A,,2 D,2- | D,2 E,2 A,,4 | D,4 z2 A,2 | F,2 C,2 F,2 E,2 | A,,4 D,4 || D,4 G,2 D,2 | %6
w: Dic no- bis|_ Ma- ri-|a, quid|vi- dis- ti in|vi- a?|"Se- pul- chrum|
 D,4 (D,4 | D,4) z2 D,2 | G,2 C,2 (D,2 E,2) | A,2 C,2 D,2 E,2 | D,4 D,4 || z4 D,4 | A,,4 D,4- | %13
w: Chris- ti,|_ et|glo- ri- am _|vi- di re- sur-|gen- tis;|an-|ge- li-|
 D,4 E,4 | A,,8 | D,8 | z4 A,4 | F,4 C,4 | F,4 E,4 | A,,8 | D,8 || F,8 | G,4 D,4 | (D,8 | G,8) | %25
w: * cos|tes-|tes,|su-|da- ri-|um et|ves-|tes.|Sur-|re- xit|Chris-||
 D,8 | z4 D,4 | G,,4 C,4 | D,4 E,4 | (A,4 C,4) | D,4 E,4 | D,8 | D,8 || A,4 A,,4 | D,4 D,4 | %35
w: tus:|prae-|ce- det|su- os|in _|Ga- li-|lae-|am."|Sci- mus|Chris- tum|
 A,,4 E,4 | A,,4 A,,4- | A,,4 A,4 | E,4 E,4 | F,4 A,4 | D,8 | C,4 F,4 | C,4 E,4 | A,4 A,4- | %44
w: sur- rex-|is- se|_ a|mor- tu-|is ve-|re.|Tu no-|bis, vic-|tor Rex,|
 A,4 F,4 | E,4 D,4 | D,8 ||[M:3/4] D,6 |[M:2/2] (A,,4 D,4) | F,2 D,2 A,,4 | D,8 |] %51
w: _ mi-|se- re-|re.|A-|men. _|Al- le- lu-|ia.|

